material/.icons/material/ear-hearing.svg

<svg xmlns="http://www.w3.org/2000/svg" viewBox="0 0 24 24"><path d="M17 20c-.29 0-.56-.06-.76-.15-.71-.35-1.21-.88-1.71-2.38-.53-1.56-1.47-2.29-2.39-3-.79-.61-1.61-1.24-2.32-2.53C9.29 11 9 9.93 9 9c0-2.8 2.2-5 5-5s5 2.2 5 5h2c0-3.93-3.07-7-7-7S7 5.07 7 9c0 1.26.38 2.65 1.07 3.9.93 1.65 1.98 2.48 2.85 3.15.81.62 1.39 1.07 1.71 2.05.6 1.82 1.37 2.84 2.73 3.55.51.23 1.07.35 1.64.35a4 4 0 004-4h-2a2 2 0 01-2 2M7.64 2.64L6.22 1.22A10.965 10.965 0 003 9c0 3.04 1.23 5.79 3.22 7.78l1.41-1.41A8.952 8.952 0 015 9c0-2.5 1-4.74 2.64-6.36M11.5 9a2.5 2.5 0 002.5 2.5A2.5 2.5 0 0016.5 9 2.5 2.5 0 0014 6.5 2.5 2.5 0 0011.5 9z"/></svg>

<?xml version="1.0" encoding="UTF-8"?><!DOCTYPE svg PUBLIC "-//W3C//DTD SVG 1.1//EN" "http://www.w3.org/Graphics/SVG/1.1/DTD/svg11.dtd"><svg xmlns="http://www.w3.org/2000/svg" xmlns:xlink="http://www.w3.org/1999/xlink" version="1.1" id="mdi-ear-hearing" width="24" height="24" viewBox="0 0 24 24"><path d="M17,20C16.71,20 16.44,19.94 16.24,19.85C15.53,19.5 15.03,18.97 14.53,17.47C14,15.91 13.06,15.18 12.14,14.47C11.35,13.86 10.53,13.23 9.82,11.94C9.29,11 9,9.93 9,9C9,6.2 11.2,4 14,4C16.8,4 19,6.2 19,9H21C21,5.07 17.93,2 14,2C10.07,2 7,5.07 7,9C7,10.26 7.38,11.65 8.07,12.9C9,14.55 10.05,15.38 10.92,16.05C11.73,16.67 12.31,17.12 12.63,18.1C13.23,19.92 14,20.94 15.36,21.65C15.87,21.88 16.43,22 17,22A4,4 0 0,0 21,18H19A2,2 0 0,1 17,20M7.64,2.64L6.22,1.22C4.23,3.21 3,5.96 3,9C3,12.04 4.23,14.79 6.22,16.78L7.63,15.37C6,13.74 5,11.5 5,9C5,6.5 6,4.26 7.64,2.64M11.5,9A2.5,2.5 0 0,0 14,11.5A2.5,2.5 0 0,0 16.5,9A2.5,2.5 0 0,0 14,6.5A2.5,2.5 0 0,0 11.5,9Z" /></svg>
